svgs/sharp-light/gallery-thumbnails.svg

<svg xmlns="http://www.w3.org/2000/svg" viewBox="0 0 576 512"><!--! Font Awesome Pro 6.6.0 by @fontawesome - https://fontawesome.com License - https://fontawesome.com/license (Commercial License) Copyright 2024 Fonticons, Inc. --><path d="M544 32l0 288L32 320 32 32l512 0zM32 0L0 0 0 32 0 320l0 32 32 0 512 0 32 0 0-32 0-288 0-32L544 0 32 0zM64 448l0 32-32 0 0-32 32 0zM32 416L0 416l0 32 0 32 0 32 32 0 32 0 32 0 0-32 0-32 0-32-32 0-32 0zm160 32l32 0 0 32-32 0 0-32zm-32-32l0 32 0 32 0 32 32 0 32 0 32 0 0-32 0-32 0-32-32 0-32 0-32 0zm224 32l0 32-32 0 0-32 32 0zm-32-32l-32 0 0 32 0 32 0 32 32 0 32 0 32 0 0-32 0-32 0-32-32 0-32 0zm160 32l32 0 0 32-32 0 0-32zm-32-32l0 32 0 32 0 32 32 0 32 0 32 0 0-32 0-32 0-32-32 0-32 0-32 0z"/></svg>

<svg xmlns="http://www.w3.org/2000/svg" viewBox="0 0 576 512"><!--! Font Awesome Pro 6.4.2 by @fontawesome - https://fontawesome.com License - https://fontawesome.com/license (Commercial License) Copyright 2023 Fonticons, Inc. --><path d="M544 32V320H32V32H544zM32 0H0V32 320v32H32 544h32V320 32 0H544 32zM64 448v32H32V448H64zM32 416H0v32 32 32H32 64 96V480 448 416H64 32zm160 32h32v32H192V448zm-32-32v32 32 32h32 32 32V480 448 416H224 192 160zm224 32v32H352V448h32zm-32-32H320v32 32 32h32 32 32V480 448 416H384 352zm160 32h32v32H512V448zm-32-32v32 32 32h32 32 32V480 448 416H544 512 480z"/></svg>
